X: 1028
T: Sergt Stack' Favorite
B: O'Neill's 1850 #1028
O: Stack
Z: Dan G. Petersen, dangp@post6.tele.dk
M: 6/8
L: 1/8
K: A
(A/B/) !segno!|\
~c3 BcB | AGE GAB | ~c3 dcd | (e/f/g).e (a/f/e).d |\
~c3 BcB | AGE GAB | {d}cBA GED | EAA HA2 :|
|| (A/B/) |\
(c/d/e).f {a}gfg | eaf ge(d/B/) | (c/d/e).f {a}gfg | eag a2(A/B/) |\
(c/d/e).f {a}gfg | eab ag(e/d/) | ~c3 ~d3 | .e{f}.ec .d.f(e/!segno!d/) :|
